projects/oblique/icons/Video.svg

<?xml version="1.0" encoding="UTF-8"?><svg id="a" xmlns="http://www.w3.org/2000/svg" viewBox="0 0 24 24"><path d="M9.86789,7.42513v9.14941l4.5752-4.5752-4.5752-4.57422ZM11.36789,11.04622l.9541.9541-.9541.95312v-1.90723ZM1.2507,3.25033v17.5h21.49902V3.25033H1.2507ZM2.73465,18.20931h1.0329v1.40039h-1.0329v-1.40039ZM18.76566,19.25033v.35938h-1.0329v-1.40039h1.0329v1.04102ZM16.26596,19.25033v.35938h-1.0329v-1.40039h1.0329v1.04102ZM13.76633,19.25033v.35938h-1.03296v-1.40039h1.03296v1.04102ZM11.26663,19.25033v.35938h-1.03296v-1.40039h1.03296v1.04102ZM8.76694,19.25033v.35938h-1.0329v-1.40039h1.0329v1.04102ZM6.26724,19.25033v.35938h-1.0329v-1.40039h1.0329v1.04102ZM21.26535,19.6097h-1.0329v-1.40039h1.0329v1.40039ZM2.7507,17.48861V6.51204h18.49902v10.97656H2.7507ZM18.76566,4.75033v1.03223h-1.0329v-1.39941h1.0329v.36719ZM16.26596,4.75033v1.03223h-1.0329v-1.39941h1.0329v.36719ZM13.76633,4.75033v1.03223h-1.03296v-1.39941h1.03296v.36719ZM11.26663,4.75033v1.03223h-1.03296v-1.39941h1.03296v.36719ZM8.76694,4.75033v1.03223h-1.0329v-1.39941h1.0329v.36719ZM6.26724,4.75033v1.03223h-1.0329v-1.39941h1.0329v.36719ZM3.76755,4.75033v1.03223h-1.0329v-1.39941h1.0329v.36719ZM21.26535,5.78255h-1.0329v-1.39941h1.0329v1.39941Z"/></svg>

<svg xmlns="http://www.w3.org/2000/svg" viewBox="0 0 24 24"><title>Video</title><path d="M9.86789,7.42513v9.14941l4.57519-4.57519Zm1.5,3.62109.9541.95411-.9541.95312Z" fill="#171717"/><path d="M1.2507,3.25033v17.5h21.499v-17.5Zm1.48395,14.959h1.0329V19.6097H2.73465Zm16.031,1.041v.35937h-1.0329V18.20931h1.0329Zm-2.4997,0v.35937h-1.0329V18.20931H16.266Zm-2.49963,0v.35937h-1.033V18.20931h1.033Zm-2.4997,0v.35937h-1.033V18.20931h1.033Zm-2.49969,0v.35937H7.734V18.20931h1.0329Zm-2.4997,0v.35937H5.23434V18.20931h1.0329Zm14.99811.35937h-1.0329V18.20931h1.0329ZM2.7507,17.48861V6.512h18.499V17.48861Zm16.015-12.73828V5.78255h-1.0329V4.38314h1.0329Zm-2.4997,0V5.78255h-1.0329V4.38314H16.266Zm-2.49963,0V5.78255h-1.033V4.38314h1.033Zm-2.4997,0V5.78255h-1.033V4.38314h1.033Zm-2.49969,0V5.78255H7.734V4.38314h1.0329Zm-2.4997,0V5.78255H5.23434V4.38314h1.0329Zm-2.49969,0V5.78255H2.73465V4.38314h1.0329Zm17.4978,1.03222h-1.0329V4.38314h1.0329Z" fill="#171717"/></svg>
